images/me2.svg

<svg xmlns="http://www.w3.org/2000/svg" viewBox="0 0 612 792" enable-background="new 0 0 612 792"><style type="text/css">.st0{fill:#2EC0D3;} .st1{fill:#2CADBE;}</style><path class="st0" d="M216.3 176.9h161.8s17.8-4.5 25.2 23.8c7.4 28.2 89.1 237.4 89.1 237.4s-6.6 17.5-34.1 15l-78.7-206.4h-11.9l74.2 230.1h-75.7l-1.5 258.3s-26.7 34.1-56.4 0v-253.9h-25.7l-1.1 249.4s-19.3 37.1-57.9 7.4v-259.8h-78.6l80.2-230.1-10.4-1.5-82.1 211.4s-16.6 5.3-36.7-11.4l95-253.4s13.4-16.3 25.3-16.3z"/><ellipse class="st0" cx="295.7" cy="102.6" rx="58.6" ry="60.9"/><path class="st1" d="M1504.4 143.6"/><path class="st1" d="M307.7 176.9h71.1s17.8-4.5 25.2 23.8l89.2 237.3s-6.6 17.5-34.1 15l-78.7-206.4h-11.9l74.2 230.1h-75.7l-1.5 258.3s-26.7 34.1-56.4 0v-253.8h-15v-304.3h13.6zM295.7 41.8c32.4 0 58.6 27.3 58.6 60.9s-26.3 60.9-58.6 60.9"/></svg>

<?xml version="1.0" encoding="utf-8"?>
<!-- Generator: Adobe Illustrator 18.1.1, SVG Export Plug-In . SVG Version: 6.00 Build 0)  -->
<svg version="1.1" id="Layer_1" xmlns="http://www.w3.org/2000/svg" xmlns:xlink="http://www.w3.org/1999/xlink" x="0px" y="0px"
	 viewBox="0 0 612 792" style="enable-background:new 0 0 612 792;" xml:space="preserve">
<style type="text/css">
	.st0{fill:#2EC0D3;}
	.st1{fill:#2CADBE;}
</style>
<path class="st0" d="M216.3,176.9h161.8c0,0,17.8-4.5,25.2,23.8c7.4,28.2,89.1,237.4,89.1,237.4s-6.6,17.5-34.1,15l-78.7-206.4
	h-11.9l74.2,230.1h-75.7l-1.5,258.3c0,0-26.7,34.1-56.4,0V481.2h-25.7l-1.1,249.4c0,0-19.3,37.1-57.9,7.4V478.2H145l80.2-230.1
	l-10.4-1.5l-82.1,211.4c0,0-16.6,5.3-36.7-11.4L191,193.2C191,193.2,204.4,176.9,216.3,176.9z"/>
<ellipse class="st0" cx="295.7" cy="102.6" rx="58.6" ry="60.9"/>
<path class="st1" d="M1504.4,143.6"/>
<path class="st1" d="M307.7,176.9h71.1c0,0,17.8-4.5,25.2,23.8S493.2,438,493.2,438s-6.6,17.5-34.1,15l-78.7-206.4h-11.9l74.2,230.1
	H367l-1.5,258.3c0,0-26.7,34.1-56.4,0V481.2H301h-6.9V176.9H307.7z"/>
<path class="st1" d="M295.7,41.8c32.4,0,58.6,27.3,58.6,60.9s-26.3,60.9-58.6,60.9"/>
</svg>
